austria/municipalities/41222.svg

<?xml version="1.0" encoding="UTF-8"?>
<!DOCTYPE svg PUBLIC "-//W3C//DTD SVG 1.1//EN" "http://www.w3.org/Graphics/SVG/1.1/DTD/svg11.dtd">
<svg xmlns="http://www.w3.org/2000/svg" version="1.1" width="166px" height="207px" style="shape-rendering:geometricPrecision; text-rendering:geometricPrecision; image-rendering:optimizeQuality; fill-rule:evenodd; clip-rule:evenodd" xmlns:xlink="http://www.w3.org/1999/xlink">
<g><path style="opacity:1" fill="#000000" d="M -0.5,-0.5 C 54.8333,-0.5 110.167,-0.5 165.5,-0.5C 165.5,44.1667 165.5,88.8333 165.5,133.5C 161.634,156.914 150.301,176.08 131.5,191C 120.516,198.576 108.516,203.743 95.5,206.5C 86.8333,206.5 78.1667,206.5 69.5,206.5C 29.6022,196.936 6.26891,171.936 -0.5,131.5C -0.5,87.5 -0.5,43.5 -0.5,-0.5 Z"/></g>
<g><path style="opacity:1" fill="#cb0000" d="M 3.5,3.5 C 56.1667,3.5 108.833,3.5 161.5,3.5C 161.667,48.1679 161.5,92.8346 161,137.5C 157.745,152.634 151.079,165.967 141,177.5C 140.667,168.167 140.333,158.833 140,149.5C 132.253,148.518 124.42,148.185 116.5,148.5C 116.831,140.804 116.497,133.138 115.5,125.5C 108.224,124.535 100.891,124.201 93.5,124.5C 93.6664,116.826 93.4997,109.159 93,101.5C 86,100.167 79,100.167 72,101.5C 71.5003,109.159 71.3336,116.826 71.5,124.5C 64.1093,124.201 56.776,124.535 49.5,125.5C 48.5025,133.138 48.1692,140.804 48.5,148.5C 40.5803,148.185 32.747,148.518 25,149.5C 24.6667,158.833 24.3333,168.167 24,177.5C 13.5928,165.35 6.92617,151.35 4,135.5C 3.50001,91.5013 3.33334,47.5013 3.5,3.5 Z"/></g>
<g><path style="opacity:1" fill="#000000" d="M 21.5,14.5 C 23.5914,14.3184 25.5914,14.6518 27.5,15.5C 29.2877,17.5765 30.9544,19.7432 32.5,22C 49.3043,33.3049 65.9709,44.8049 82.5,56.5C 99.0291,44.8049 115.696,33.3049 132.5,22C 134.047,19.2133 136.047,16.8799 138.5,15C 146.304,14.8092 148.304,18.1425 144.5,25C 141.243,25.7491 138.576,27.4157 136.5,30C 137.573,31.3129 138.24,32.8129 138.5,34.5C 137.349,36.3254 136.682,38.3254 136.5,40.5C 138.484,40.6168 140.15,39.9501 141.5,38.5C 144.412,41.2448 146.746,44.4115 148.5,48C 146.444,50.4441 143.944,52.2774 141,53.5C 139.667,52.1667 138.333,50.8333 137,49.5C 135.075,50.8804 133.241,52.3804 131.5,54C 133.036,55.5994 133.536,57.4328 133,59.5C 131.229,60.3041 129.729,61.4708 128.5,63C 124.302,62.3328 121.302,59.8328 119.5,55.5C 120.145,54.354 120.978,53.354 122,52.5C 122.372,48.0588 120.872,47.3922 117.5,50.5C 115.52,49.5161 113.853,48.1827 112.5,46.5C 105.001,51.4175 97.6678,56.5841 90.5,62C 98.1667,67.1667 105.833,72.3333 113.5,77.5C 116.184,76.334 118.184,77.1673 119.5,80C 122.667,80.1667 125.833,80.3333 129,80.5C 134.511,80.2235 139.678,79.3902 144.5,78C 148.894,82.2586 148.227,85.092 142.5,86.5C 142.334,91.8437 142.501,97.1771 143,102.5C 147.359,104.476 148.526,107.643 146.5,112C 142.802,114.386 139.802,113.719 137.5,110C 131.472,109.17 125.472,109.336 119.5,110.5C 118.548,112.512 116.881,113.512 114.5,113.5C 108.079,112.237 107.079,109.237 111.5,104.5C 112.494,99.544 112.827,94.544 112.5,89.5C 111.127,89.6567 109.793,89.49 108.5,89C 107.206,86.9097 106.206,84.9097 105.5,83C 97.6968,78.0291 90.0302,72.8625 82.5,67.5C 74.9698,72.8625 67.3032,78.0291 59.5,83C 58.1341,84.5998 57.1341,86.4332 56.5,88.5C 55.2638,89.2458 53.9305,89.5792 52.5,89.5C 52.3341,94.5111 52.5007,99.5111 53,104.5C 55.6141,106.739 56.1141,109.405 54.5,112.5C 51.8333,113.833 49.1667,113.833 46.5,112.5C 46.1667,111.833 45.8333,111.167 45.5,110.5C 39.5276,109.336 33.5276,109.17 27.5,110C 24.8221,113.87 21.6555,114.37 18,111.5C 16.5404,107.202 17.8738,104.202 22,102.5C 22.4994,97.1771 22.666,91.8437 22.5,86.5C 18.032,86.2517 16.532,83.9183 18,79.5C 21.3074,76.7446 24.4741,76.9113 27.5,80C 33.8246,80.4995 40.1579,80.6662 46.5,80.5C 46.281,79.325 46.6143,78.325 47.5,77.5C 49.4259,76.9394 51.4259,76.7727 53.5,77C 60.3239,71.7546 67.3239,66.7546 74.5,62C 67.7749,56.2208 60.6082,51.0541 53,46.5C 50.4847,50.2957 47.4847,50.9624 44,48.5C 42.6346,49.5929 42.3013,50.9262 43,52.5C 44.0217,53.354 44.8551,54.354 45.5,55.5C 43.8536,58.8102 41.5203,61.4768 38.5,63.5C 35.7426,62.2467 33.4093,60.4133 31.5,58C 31.9031,56.5272 32.5697,55.1939 33.5,54C 31.7585,52.3804 29.9252,50.8804 28,49.5C 26.6667,50.8333 25.3333,52.1667 24,53.5C 21.056,52.2774 18.556,50.4441 16.5,48C 18.4791,44.5283 20.8125,41.3617 23.5,38.5C 28.5661,41.0876 29.5661,39.7542 26.5,34.5C 26.9391,32.8957 27.6057,31.3957 28.5,30C 25.5021,27.619 22.3354,25.4523 19,23.5C 17.9271,19.9003 18.7605,16.9003 21.5,14.5 Z"/></g>
<g><path style="opacity:1" fill="#fe9900" d="M 22.5,16.5 C 26.9699,17.265 27.9699,19.4317 25.5,23C 20.3823,22.8242 19.3823,20.6576 22.5,16.5 Z"/></g>
<g><path style="opacity:1" fill="#fe9900" d="M 138.5,16.5 C 143.651,16.6536 144.984,18.8202 142.5,23C 137.177,23.1802 135.843,21.0136 138.5,16.5 Z"/></g>
<g><path style="opacity:1" fill="#fe9900" d="M 29.5,22.5 C 55.8044,40.6568 82.1378,58.8235 108.5,77C 111.118,78.9738 110.952,80.8071 108,82.5C 81.0279,63.6943 54.1945,44.6943 27.5,25.5C 28.1925,24.4822 28.8592,23.4822 29.5,22.5 Z"/></g>
<g><path style="opacity:1" fill="#fe9900" d="M 134.5,22.5 C 136.728,23.3218 137.395,24.6552 136.5,26.5C 120.195,37.6387 104.028,48.9721 88,60.5C 85.6837,59.4776 85.1837,57.9776 86.5,56C 102.403,44.5808 118.403,33.4141 134.5,22.5 Z"/></g>
<g><path style="opacity:1" fill="#fe9900" d="M 30.5,31.5 C 37.3107,35.7423 43.9774,40.2423 50.5,45C 48.9047,49.176 46.738,49.3426 44,45.5C 41.8104,47.3884 39.9771,49.5551 38.5,52C 43.7992,55.1141 43.6326,57.9475 38,60.5C 34.1896,59.0723 33.6896,56.9056 36.5,54C 34.2847,51.1294 31.4514,48.9627 28,47.5C 26.3745,48.2887 24.8745,49.2887 23.5,50.5C 21.5026,50.0142 20.1693,48.8475 19.5,47C 20.8825,45.0671 22.3825,43.2337 24,41.5C 26.112,43.9223 28.112,43.9223 30,41.5C 30.6355,40.0337 31.4688,38.7003 32.5,37.5C 31.0186,36.5197 29.6853,35.353 28.5,34C 29.3805,33.2917 30.0472,32.4584 30.5,31.5 Z"/></g>
<g><path style="opacity:1" fill="#fe9900" d="M 133.5,31.5 C 134.643,31.9081 135.643,32.5748 136.5,33.5C 135.5,35.1667 134.167,36.5 132.5,37.5C 133.701,39.9095 135.367,41.9095 137.5,43.5C 138.833,42.8333 140.167,42.1667 141.5,41.5C 143.226,43.2279 144.559,45.2279 145.5,47.5C 144.564,48.9744 143.23,49.9744 141.5,50.5C 140.126,49.2887 138.626,48.2887 137,47.5C 133.738,48.9346 130.904,50.9346 128.5,53.5C 131.42,56.5712 130.92,58.9045 127,60.5C 121.367,57.9475 121.201,55.1141 126.5,52C 125,49.8333 123.5,47.6667 122,45.5C 118.789,48.9878 116.289,48.8211 114.5,45C 120.9,40.4781 127.233,35.9781 133.5,31.5 Z"/></g>
<g><path style="opacity:1" fill="#fe9900" d="M 75.5,63.5 C 79.4624,63.9049 80.1291,65.4049 77.5,68C 70.6667,72.8333 63.8333,77.6667 57,82.5C 55.9783,81.646 55.1449,80.646 54.5,79.5C 61.5425,74.1114 68.5425,68.7781 75.5,63.5 Z"/></g>
<g><path style="opacity:1" fill="#fe9900" d="M 48.5,78.5 C 51.8114,79.8114 54.1448,82.1447 55.5,85.5C 54.635,86.5827 53.635,86.7494 52.5,86C 49.6026,84.2845 48.2693,81.7845 48.5,78.5 Z"/></g>
<g><path style="opacity:1" fill="#fe9900" d="M 114.5,78.5 C 116.273,79.3143 116.773,80.6476 116,82.5C 114.611,84.2273 112.944,85.5606 111,86.5C 110.5,86.1667 110,85.8333 109.5,85.5C 110.804,82.8699 112.47,80.5366 114.5,78.5 Z"/></g>
<g><path style="opacity:1" fill="#fe9900" d="M 21.5,79.5 C 25.5411,79.5017 26.2077,80.835 23.5,83.5C 22.3112,84.4287 20.9778,84.762 19.5,84.5C 19.3653,82.4458 20.032,80.7791 21.5,79.5 Z"/></g>
<g><path style="opacity:1" fill="#fe9900" d="M 140.5,79.5 C 143.91,79.3838 145.244,81.0504 144.5,84.5C 140.932,84.3054 139.599,82.6388 140.5,79.5 Z"/></g>
<g><path style="opacity:1" fill="#fe9900" d="M 26.5,82.5 C 33.175,82.3337 39.8417,82.5004 46.5,83C 47.6184,84.0736 48.6184,85.2402 49.5,86.5C 50.8333,92.8333 50.8333,99.1667 49.5,105.5C 48.6919,105.808 48.0253,106.308 47.5,107C 40.8333,107.667 34.1667,107.667 27.5,107C 26.6667,106.167 25.8333,105.333 25,104.5C 24.3333,98.1667 24.3333,91.8333 25,85.5C 25.5133,84.4734 26.0133,83.4734 26.5,82.5 Z"/></g>
<g><path style="opacity:1" fill="#fe9900" d="M 118.5,82.5 C 124.842,82.3338 131.175,82.5005 137.5,83C 138.025,83.6924 138.692,84.1924 139.5,84.5C 140.833,91.5 140.833,98.5 139.5,105.5C 138.692,105.808 138.025,106.308 137.5,107C 130.833,107.667 124.167,107.667 117.5,107C 116.667,106.167 115.833,105.333 115,104.5C 114.333,98.5 114.333,92.5 115,86.5C 116.376,85.2949 117.542,83.9616 118.5,82.5 Z"/></g>
<g><path style="opacity:1" fill="#000000" d="M 27.5,85.5 C 33.8421,85.3338 40.1754,85.5005 46.5,86C 47.6406,91.7504 47.8072,97.5837 47,103.5C 40.9156,104.642 34.7489,104.809 28.5,104C 27.5236,97.9242 27.1903,91.7576 27.5,85.5 Z"/></g>
<g><path style="opacity:1" fill="#000000" d="M 117.5,85.5 C 123.842,85.3338 130.175,85.5005 136.5,86C 137.641,91.7504 137.807,97.5837 137,103.5C 130.916,104.642 124.749,104.809 118.5,104C 117.524,97.9242 117.19,91.7576 117.5,85.5 Z"/></g>
<g><path style="opacity:1" fill="#cb0000" d="M 29.5,87.5 C 34.8333,87.5 40.1667,87.5 45.5,87.5C 45.5,92.5 45.5,97.5 45.5,102.5C 40.1667,102.5 34.8333,102.5 29.5,102.5C 29.5,97.5 29.5,92.5 29.5,87.5 Z"/></g>
<g><path style="opacity:1" fill="#cb0000" d="M 119.5,87.5 C 124.833,87.5 130.167,87.5 135.5,87.5C 135.5,92.5 135.5,97.5 135.5,102.5C 130.167,102.5 124.833,102.5 119.5,102.5C 119.5,97.5 119.5,92.5 119.5,87.5 Z"/></g>
<g><path style="opacity:1" fill="#fefffe" d="M 73.5,102.5 C 79.5,102.5 85.5,102.5 91.5,102.5C 91.5,110.5 91.5,118.5 91.5,126.5C 99.1667,126.5 106.833,126.5 114.5,126.5C 114.5,134.5 114.5,142.5 114.5,150.5C 122.5,150.5 130.5,150.5 138.5,150.5C 138.666,160.506 138.5,170.506 138,180.5C 131.557,186.276 124.557,191.276 117,195.5C 116.667,187.5 116.333,179.5 116,171.5C 108.587,170.519 101.087,170.186 93.5,170.5C 93.6663,163.492 93.4996,156.492 93,149.5C 86,148.167 79,148.167 72,149.5C 71.5004,156.492 71.3337,163.492 71.5,170.5C 63.9129,170.186 56.4129,170.519 49,171.5C 48.6667,179.5 48.3333,187.5 48,195.5C 40.4432,191.276 33.4432,186.276 27,180.5C 26.5002,170.506 26.3335,160.506 26.5,150.5C 34.5,150.5 42.5,150.5 50.5,150.5C 50.5,142.5 50.5,134.5 50.5,126.5C 58.1667,126.5 65.8333,126.5 73.5,126.5C 73.5,118.5 73.5,110.5 73.5,102.5 Z"/></g>
<g><path style="opacity:1" fill="#fe9900" d="M 20.5,105.5 C 25.8902,106.25 26.5568,108.25 22.5,111.5C 19.5313,110.235 18.8646,108.235 20.5,105.5 Z"/></g>
<g><path style="opacity:1" fill="#fe9900" d="M 141.5,105.5 C 146.147,106.792 146.481,108.792 142.5,111.5C 139.025,109.916 138.692,107.916 141.5,105.5 Z"/></g>
<g><path style="opacity:1" fill="#fe9900" d="M 51.5,106.5 C 53.2132,107.635 53.8799,109.302 53.5,111.5C 46.6174,111.666 45.9508,110 51.5,106.5 Z"/></g>
<g><path style="opacity:1" fill="#fe9900" d="M 112.5,106.5 C 114.544,107.031 116.211,108.198 117.5,110C 112.855,112.616 111.189,111.45 112.5,106.5 Z"/></g>
<g><path style="opacity:1" fill="#fefffe" d="M -0.5,131.5 C 6.26891,171.936 29.6022,196.936 69.5,206.5C 46.1667,206.5 22.8333,206.5 -0.5,206.5C -0.5,181.5 -0.5,156.5 -0.5,131.5 Z"/></g>
<g><path style="opacity:1" fill="#fefffe" d="M 165.5,133.5 C 165.5,157.833 165.5,182.167 165.5,206.5C 142.167,206.5 118.833,206.5 95.5,206.5C 108.516,203.743 120.516,198.576 131.5,191C 150.301,176.08 161.634,156.914 165.5,133.5 Z"/></g>
<g><path style="opacity:1" fill="#cb0000" d="M 73.5,150.5 C 79.5,150.5 85.5,150.5 91.5,150.5C 91.5,157.833 91.5,165.167 91.5,172.5C 99.1667,172.5 106.833,172.5 114.5,172.5C 114.816,180.752 114.482,188.919 113.5,197C 92.8248,204.309 72.1582,204.309 51.5,197C 50.5175,188.919 50.1842,180.752 50.5,172.5C 58.1667,172.5 65.8333,172.5 73.5,172.5C 73.5,165.167 73.5,157.833 73.5,150.5 Z"/></g>
</svg>

<svg xmlns="http://www.w3.org/2000/svg" width="166" height="207" style="shape-rendering:geometricPrecision;text-rendering:geometricPrecision;image-rendering:optimizeQuality;fill-rule:evenodd;clip-rule:evenodd"><path style="opacity:1" d="M-.5-.5h166v134c-3.866 23.414-15.199 42.58-34 57.5-10.984 7.576-22.984 12.743-36 15.5h-26c-39.898-9.564-63.231-34.564-70-75V-.5z"/><path style="opacity:1" fill="#cb0000" d="M3.5 3.5h158a8973.7 8973.7 0 0 1-.5 134c-3.255 15.134-9.921 28.467-20 40l-1-28a141.755 141.755 0 0 0-23.5-1 133.155 133.155 0 0 0-1-23 127.743 127.743 0 0 0-22-1c.166-7.674 0-15.341-.5-23-7-1.333-14-1.333-21 0-.5 7.659-.666 15.326-.5 23-7.39-.299-14.724.035-22 1a133.125 133.125 0 0 0-1 23c-7.92-.315-15.753.018-23.5 1l-1 28c-10.407-12.15-17.074-26.15-20-42-.5-43.999-.667-87.999-.5-132z"/><path style="opacity:1" d="M21.5 14.5a11.989 11.989 0 0 1 6 1 74.327 74.327 0 0 1 5 6.5 2576.402 2576.402 0 0 1 50 34.5 2577.322 2577.322 0 0 1 50-34.5c1.547-2.787 3.547-5.12 6-7 7.804-.19 9.804 3.142 6 10-3.257.75-5.924 2.416-8 5a9.2 9.2 0 0 1 2 4.5 13.142 13.142 0 0 0-2 6c1.984.117 3.65-.55 5-2a32.666 32.666 0 0 1 7 9.5 19.376 19.376 0 0 1-7.5 5.5l-4-4a55.861 55.861 0 0 0-5.5 4.5c1.536 1.6 2.036 3.433 1.5 5.5a12.139 12.139 0 0 0-4.5 3.5c-4.198-.667-7.198-3.167-9-7.5a10.756 10.756 0 0 1 2.5-3c.372-4.441-1.128-5.108-4.5-2a14.755 14.755 0 0 1-5-4 403.691 403.691 0 0 0-22 15.5l23 15.5c2.684-1.166 4.684-.333 6 2.5l9.5.5c5.511-.276 10.678-1.11 15.5-2.5 4.394 4.259 3.727 7.092-2 8.5-.166 5.344.001 10.677.5 16 4.359 1.976 5.526 5.143 3.5 9.5-3.698 2.386-6.698 1.719-9-2a54.557 54.557 0 0 0-18 .5c-.952 2.012-2.619 3.012-5 3-6.421-1.263-7.421-4.263-3-9a57.15 57.15 0 0 0 1-15 8.435 8.435 0 0 1-4-.5c-1.294-2.09-2.294-4.09-3-6a537.304 537.304 0 0 1-23-15.5 537.304 537.304 0 0 1-23 15.5 15.268 15.268 0 0 0-3 5.5 6.845 6.845 0 0 1-4 1c-.166 5.011 0 10.011.5 15 2.614 2.239 3.114 4.905 1.5 8-2.667 1.333-5.333 1.333-8 0l-1-2a54.558 54.558 0 0 0-18-.5c-2.678 3.87-5.845 4.37-9.5 1.5-1.46-4.298-.126-7.298 4-9 .5-5.323.666-10.656.5-16-4.468-.248-5.968-2.582-4.5-7 3.307-2.755 6.474-2.589 9.5.5 6.325.5 12.658.666 19 .5-.219-1.175.114-2.175 1-3 1.926-.56 3.926-.727 6-.5a367.607 367.607 0 0 1 21-15A155.339 155.339 0 0 0 53 46.5c-2.515 3.796-5.515 4.462-9 2-1.365 1.093-1.699 2.426-1 4a10.76 10.76 0 0 1 2.5 3c-1.646 3.31-3.98 5.977-7 8-2.757-1.253-5.09-3.087-7-5.5a11.292 11.292 0 0 1 2-4 55.897 55.897 0 0 0-5.5-4.5l-4 4a19.376 19.376 0 0 1-7.5-5.5 49.969 49.969 0 0 1 7-9.5c5.066 2.588 6.066 1.254 3-4a16.238 16.238 0 0 1 2-4.5 81.232 81.232 0 0 0-9.5-6.5c-1.073-3.6-.24-6.6 2.5-9z"/><path style="opacity:1" fill="#fe9900" d="M22.5 16.5c4.47.765 5.47 2.932 3 6.5-5.118-.176-6.118-2.342-3-6.5zM138.5 16.5c5.151.154 6.484 2.32 4 6.5-5.323.18-6.657-1.986-4-6.5zM29.5 22.5c26.304 18.157 52.638 36.324 79 54.5 2.618 1.974 2.452 3.807-.5 5.5a6790.971 6790.971 0 0 1-80.5-57 186.2 186.2 0 0 0 2-3zM134.5 22.5c2.228.822 2.895 2.155 2 4a2448.122 2448.122 0 0 0-48.5 34c-2.316-1.022-2.816-2.522-1.5-4.5a2174.544 2174.544 0 0 1 48-33.5zM30.5 31.5a329.974 329.974 0 0 1 20 13.5c-1.595 4.176-3.762 4.343-6.5.5a26.92 26.92 0 0 0-5.5 6.5c5.3 3.114 5.133 5.947-.5 8.5-3.81-1.428-4.31-3.594-1.5-6.5-2.215-2.87-5.049-5.037-8.5-6.5a19.955 19.955 0 0 0-4.5 3c-1.997-.486-3.33-1.653-4-3.5a54.708 54.708 0 0 1 4.5-5.5c2.112 2.422 4.112 2.422 6 0a15.653 15.653 0 0 1 2.5-4 19.894 19.894 0 0 1-4-3.5c.88-.708 1.547-1.542 2-2.5zM133.5 31.5a7.468 7.468 0 0 1 3 2c-1 1.667-2.333 3-4 4a16.626 16.626 0 0 0 5 6l4-2a18.329 18.329 0 0 1 4 6c-.936 1.474-2.27 2.474-4 3a19.933 19.933 0 0 0-4.5-3 25.701 25.701 0 0 0-8.5 6c2.92 3.071 2.42 5.404-1.5 7-5.633-2.553-5.799-5.386-.5-8.5l-4.5-6.5c-3.211 3.488-5.711 3.321-7.5-.5 6.4-4.522 12.733-9.022 19-13.5zM75.5 63.5c3.962.405 4.63 1.905 2 4.5L57 82.5a10.76 10.76 0 0 1-2.5-3 6385.937 6385.937 0 0 1 21-16zM48.5 78.5c3.311 1.311 5.645 3.645 7 7-.865 1.083-1.865 1.25-3 .5-2.897-1.716-4.23-4.216-4-7.5zM114.5 78.5c1.773.814 2.273 2.148 1.5 4-1.389 1.727-3.056 3.06-5 4l-1.5-1a26.535 26.535 0 0 1 5-7zM21.5 79.5c4.041.002 4.708 1.335 2 4-1.189.929-2.522 1.262-4 1-.135-2.054.532-3.72 2-5zM140.5 79.5c3.41-.116 4.744 1.55 4 5-3.568-.195-4.901-1.861-4-5zM26.5 82.5c6.675-.166 13.342 0 20 .5a23.591 23.591 0 0 1 3 3.5 45.626 45.626 0 0 1 0 19 4.458 4.458 0 0 0-2 1.5 100.2 100.2 0 0 1-20 0l-2.5-2.5a90.496 90.496 0 0 1 0-19l1.5-3zM118.5 82.5c6.342-.166 12.675 0 19 .5a4.451 4.451 0 0 0 2 1.5c1.333 7 1.333 14 0 21a4.457 4.457 0 0 0-2 1.5 100.2 100.2 0 0 1-20 0l-2.5-2.5c-.667-6-.667-12 0-18a19.565 19.565 0 0 0 3.5-4z"/><path style="opacity:1" d="M27.5 85.5c6.342-.166 12.675 0 19 .5 1.14 5.75 1.307 11.584.5 17.5-6.084 1.142-12.251 1.309-18.5.5a88.66 88.66 0 0 1-1-18.5zM117.5 85.5c6.342-.166 12.675 0 19 .5 1.141 5.75 1.307 11.584.5 17.5-6.084 1.142-12.251 1.309-18.5.5a88.666 88.666 0 0 1-1-18.5z"/><path style="opacity:1" fill="#cb0000" d="M29.5 87.5h16v15h-16v-15zM119.5 87.5h16v15h-16v-15z"/><path style="opacity:1" fill="#fefffe" d="M73.5 102.5h18v24h23v24h24c.166 10.006 0 20.006-.5 30a116.563 116.563 0 0 1-21 15l-1-24a130.161 130.161 0 0 0-22.5-1c.166-7.008 0-14.008-.5-21-7-1.333-14-1.333-21 0a220.94 220.94 0 0 0-.5 21 130.16 130.16 0 0 0-22.5 1l-1 24a116.577 116.577 0 0 1-21-15c-.5-9.994-.666-19.994-.5-30h24v-24h23v-24z"/><path style="opacity:1" fill="#fe9900" d="M20.5 105.5c5.39.75 6.057 2.75 2 6-2.969-1.265-3.635-3.265-2-6zM141.5 105.5c4.647 1.292 4.981 3.292 1 6-3.475-1.584-3.808-3.584-1-6zM51.5 106.5c1.713 1.135 2.38 2.802 2 5-6.883.166-7.55-1.5-2-5zM112.5 106.5c2.044.531 3.711 1.698 5 3.5-4.645 2.616-6.311 1.45-5-3.5z"/><path style="opacity:1" fill="#fefffe" d="M-.5 131.5c6.769 40.436 30.102 65.436 70 75h-70v-75zM165.5 133.5v73h-70c13.016-2.757 25.016-7.924 36-15.5 18.801-14.92 30.134-34.086 34-57.5z"/><path style="opacity:1" fill="#cb0000" d="M73.5 150.5h18v22h23a153.949 153.949 0 0 1-1 24.5c-20.675 7.309-41.342 7.309-62 0a153.913 153.913 0 0 1-1-24.5h23v-22z"/></svg>
